X:261
T:Praise To The Lord, The Almighty
%%stretchlast false
M:3/4
L:1/4
K:Eb clef=C1
"^I"[EGBe] "^vi"[CGce] "^V¹"[DFBb] | "^I"[EBeg]3/2 "^V7"[B,Adf]/ "^vi"[CGce] | "^iii"[G,GBd] "^IV"[A,EAc] "^I"[E,EGB] | "^vi"[CEGc] "^V"[B,DBd] "^i"[E,EBe] | [B,EBf] "^V"[B,DBf]/ [B,CBf]/ [B,DBf] | "^I"[E,GBe]3 | [EGBe] "^vi"[CGce] "^V¹"[DFBb] | "^I"[EBeg]3/2 "^V7"[B,Adf]/ "^vi"[CGce] | "^iii"[G,GBd] "^IV"[A,EAc] "^I"[E,EGB] | "^vi"[CEGc] "^V"[B,DBd] "^i"[E,EBe] | [B,EBf] "^V"[B,DBf]/ [B,CBf]/ [B,DBf] | "^I"[E,GBe]3 | [EGeb] "^V¹"[DFBb] "^I"[EGeb] | "^IV"[A,Aec']3 | "^I"[EBeg]3/2 "^IV¹"[CAea]/ "^V"[B,Fdb] | "^I"[E,Geb]3/2 "^ii"[F,Aca]/ "^I¹"[G,Beg] | "^V"[B,Bdf]3 | [B,DFB] "^IV"[A,EAc] "^vii°¹"[F,FAd] | "^I¹"[G,EBe] "^V"[B,DBf] "^I"[EBg] | "^ii7¹"[A,Ecf] "^viiø7²"[A,Dcf]/ "^ii¹"[A,Ccf]/ "^V"[B,DBf]/ "^V7"[B,DAf]/ | "^I"[E,EGe]3 |]
